assets/luts/cinematic.cube
TITLE "The Data Lens Cinematic"
LUT_3D_SIZE 9
0.000000 0.007378 0.047128
0.055813 0.006381 0.043703
0.208428 0.003714 0.037256
0.361043 0.001046 0.030809
0.513658 0.000000 0.024362
0.666273 0.000000 0.017916
0.818888 0.000000 0.011469
0.971504 0.000000 0.005022
1.000000 0.000000 0.002699
0.000000 0.101360 0.039077
0.057386 0.100282 0.035570
0.210001 0.097614 0.029123
0.362616 0.094946 0.022676
0.515231 0.092278 0.016230
0.667847 0.089611 0.009783
0.820462 0.086943 0.003336
0.973077 0.084275 0.000000
1.000000 0.083314 0.000000
0.000000 0.247619 0.026549
0.059834 0.246412 0.022914
0.212450 0.243745 0.016467
0.365065 0.241077 0.010020
0.517680 0.238409 0.003573
0.670295 0.235741 0.000000
0.822910 0.233074 0.000000
0.975525 0.230406 0.000000
1.000000 0.229445 0.000000
0.000000 0.393877 0.014020
0.062283 0.392543 0.010257
0.214898 0.389875 0.003810
0.367513 0.387207 0.000000
0.520128 0.384540 0.000000
0.672743 0.381872 0.000000
0.825359 0.379204 0.000000
0.977974 0.376536 0.000000
1.000000 0.375652 0.000000
0.000000 0.540136 0.001491
0.064731 0.538674 0.000000
0.217346 0.536006 0.000000
0.369962 0.533338 0.000000
0.522577 0.530670 0.000000
0.675192 0.528003 0.000000
0.827797 0.525325 0.000000
0.980388 0.522632 0.000000
1.000000 0.521866 0.000000
0.000000 0.686394 0.000000
0.067180 0.684804 0.000000
0.219795 0.682136 0.000000
0.372410 0.679469 0.000000
0.525016 0.676792 0.000000
0.677607 0.674099 0.000000
0.830197 0.671407 0.000000
0.982787 0.668714 0.000000
1.000000 0.668076 0.000000
0.000000 0.832649 0.000000
0.069628 0.830935 0.000000
0.222235 0.828259 0.000000
0.374826 0.825567 0.000000
0.527416 0.822874 0.000000
0.680006 0.820181 0.000000
0.832597 0.817489 0.000000
0.985187 0.814796 0.000000
1.000000 0.814286 0.000000
0.000000 0.978764 0.000000
0.072045 0.977034 0.000000
0.224635 0.974341 0.000000
0.377225 0.971648 0.000000
0.529816 0.968956 0.000000
0.682406 0.966263 0.000000
0.834996 0.963571 0.000000
0.987587 0.960878 0.000000
1.000000 0.960496 0.000000
0.000000 1.000000 0.000000
0.073141 1.000000 0.000000
0.225729 1.000000 0.000000
0.378317 1.000000 0.000000
0.530905 1.000000 0.000000
0.683493 1.000000 0.000000
0.836081 1.000000 0.000000
0.988669 1.000000 0.000000
1.000000 1.000000 0.000000
0.000000 0.006740 0.142830
0.056118 0.005728 0.139389
0.208733 0.003060 0.132942
0.361349 0.000392 0.126495
0.513964 0.000000 0.120049
0.666579 0.000000 0.113602
0.819194 0.000000 0.107155
0.971809 0.000000 0.100708
1.000000 0.000000 0.098386
0.000000 0.100723 0.134779
0.057691 0.099628 0.131256
0.210307 0.096960 0.124809
0.362922 0.094293 0.118363
0.515537 0.091625 0.111916
0.668152 0.088957 0.105469
0.820767 0.086289 0.099022
0.973382 0.083622 0.092575
1.000000 0.082661 0.090253
0.000000 0.246981 0.122251
0.060140 0.245759 0.118600
0.212755 0.243091 0.112153
0.365370 0.240423 0.105706
0.517985 0.237755 0.099259
0.670601 0.235088 0.092812
0.823216 0.232420 0.086365
0.975831 0.229752 0.079918
1.000000 0.228791 0.077596
0.000000 0.393240 0.109722
0.062588 0.391889 0.105943
0.215204 0.389222 0.099496
0.367819 0.386554 0.093049
0.520434 0.383886 0.086603
0.673049 0.381218 0.080156
0.825664 0.378551 0.073709
0.978279 0.375883 0.067262
1.000000 0.375014 0.065032
0.000000 0.539498 0.097193
0.065037 0.538020 0.093287
0.217652 0.535352 0.086840
0.370267 0.532684 0.080393
0.522882 0.530017 0.073946
0.675497 0.527349 0.067499
0.828113 0.524681 0.061052
0.980728 0.522013 0.054605
1.000000 0.521272 0.052503
0.000000 0.685757 0.084664
0.067485 0.684151 0.080630
0.220100 0.681483 0.074183
0.372716 0.678815 0.067736
0.525331 0.676147 0.061289
0.677946 0.673480 0.054843
0.830561 0.670812 0.048396
0.983176 0.668144 0.041949
1.000000 0.667531 0.039974
0.000000 0.831995 0.072116
0.069934 0.830281 0.067973
0.222549 0.827614 0.061527
0.375164 0.824946 0.055080
0.527779 0.822278 0.048633
0.680394 0.819610 0.042186
0.833009 0.816943 0.035739
0.985625 0.814275 0.029292
1.000000 0.813789 0.027445
0.000000 0.978126 0.059459
0.072382 0.976412 0.055317
0.224997 0.973744 0.048870
0.377612 0.971076 0.042423
0.530228 0.968409 0.035976
0.682843 0.965741 0.029529
0.835458 0.963073 0.023082
0.988073 0.960405 0.016636
1.000000 0.960048 0.014917
0.000000 1.000000 0.055133
0.073495 1.000000 0.050989
0.226108 1.000000 0.044540
0.378721 1.000000 0.038091
0.531334 1.000000 0.031641
0.683947 1.000000 0.025192
0.836560 1.000000 0.018743
0.989173 1.000000 0.012294
1.000000 1.000000 0.010620
0.000000 0.005748 0.291765
0.056594 0.004711 0.288299
0.209209 0.002043 0.281852
0.361824 0.000000 0.275405
0.514439 0.000000 0.268959
0.667054 0.000000 0.262512
0.819669 0.000000 0.256065
0.972285 0.000000 0.249618
1.000000 0.000000 0.247296
0.000000 0.099730 0.283714
0.058167 0.098611 0.280166
0.210782 0.095943 0.273719
0.363397 0.093275 0.267273
0.516012 0.090608 0.260826
0.668628 0.087940 0.254379
0.821243 0.085272 0.247932
0.973858 0.082604 0.241485
1.000000 0.081643 0.239163
0.000000 0.245989 0.271186
0.060615 0.244742 0.267510
0.213231 0.242074 0.261063
0.365846 0.239406 0.254616
0.518461 0.236738 0.248169
0.671076 0.234071 0.241722
0.823691 0.231403 0.235275
0.976306 0.228735 0.228828
1.000000 0.227774 0.226506
0.000000 0.392247 0.258657
0.063064 0.390872 0.254853
0.215679 0.388204 0.248406
0.368294 0.385537 0.241959
0.520909 0.382869 0.235513
0.673524 0.380201 0.229066
0.826140 0.377533 0.222619
0.978755 0.374866 0.216172
1.000000 0.374022 0.213966
0.000000 0.538506 0.246128
0.065512 0.537003 0.242197
0.218127 0.534335 0.235750
0.370743 0.531667 0.229303
0.523358 0.529000 0.222856
0.675973 0.526332 0.216409
0.828588 0.523664 0.209962
0.981203 0.520996 0.203515
1.000000 0.520280 0.201438
0.000000 0.684764 0.233599
0.067961 0.683133 0.229540
0.220576 0.680466 0.223093
0.373191 0.677798 0.216646
0.525806 0.675130 0.210199
0.678421 0.672462 0.203752
0.831037 0.669795 0.197306
0.983652 0.667127 0.190859
1.000000 0.666539 0.188909
0.000000 0.830978 0.221026
0.070409 0.829264 0.216883
0.223024 0.826596 0.210437
0.375639 0.823929 0.203990
0.528255 0.821261 0.197543
0.680870 0.818593 0.191096
0.833485 0.815925 0.184649
0.986100 0.813258 0.178202
1.000000 0.812797 0.176380
0.000000 0.977109 0.208369
0.072858 0.975395 0.204227
0.225473 0.972727 0.197780
0.378088 0.970059 0.191333
0.530703 0.967392 0.184886
0.683318 0.964724 0.178439
0.835933 0.962056 0.171992
0.988549 0.959388 0.165546
1.000000 0.959055 0.163851
0.000000 1.000000 0.204042
0.073970 1.000000 0.199898
0.226583 1.000000 0.193449
0.379196 1.000000 0.187000
0.531809 1.000000 0.180551
0.684421 1.000000 0.174101
0.837034 1.000000 0.167652
0.989647 1.000000 0.161203
1.000000 1.000000 0.159554
0.000000 0.004756 0.440700
0.057069 0.003694 0.437209
0.209684 0.001026 0.430762
0.362300 0.000000 0.424315
0.514915 0.000000 0.417869
0.667530 0.000000 0.411422
0.820145 0.000000 0.404975
0.972760 0.000000 0.398528
1.000000 0.000000 0.396206
0.000000 0.098738 0.432649
0.058643 0.097594 0.429076
0.211258 0.094926 0.422629
0.363873 0.092258 0.416183
0.516488 0.089591 0.409736
0.669103 0.086923 0.403289
0.821718 0.084255 0.396842
0.974333 0.081587 0.390395
1.000000 0.080626 0.388073
0.000000 0.244997 0.420120
0.061091 0.243724 0.416420
0.213706 0.241057 0.409973
0.366321 0.238389 0.403526
0.518936 0.235721 0.397079
0.671552 0.233053 0.390632
0.824167 0.230386 0.384185
0.976782 0.227718 0.377738
1.000000 0.226771 0.375430
0.000000 0.391255 0.407592
0.063539 0.389855 0.403763
0.216155 0.387187 0.397316
0.368770 0.384520 0.390869
0.521385 0.381852 0.384423
0.674000 0.379184 0.377976
0.826615 0.376516 0.371529
0.979230 0.373849 0.365082
1.000000 0.373029 0.362901
0.000000 0.537514 0.395063
0.065988 0.535986 0.391107
0.218603 0.533318 0.384660
0.371218 0.530650 0.378213
0.523833 0.527982 0.371766
0.676448 0.525315 0.365319
0.829064 0.522647 0.358872
0.981679 0.519979 0.352425
1.000000 0.519288 0.350373
0.000000 0.683772 0.382534
0.068436 0.682116 0.378450
0.221051 0.679449 0.372003
0.373667 0.676781 0.365556
0.526282 0.674113 0.359109
0.678897 0.671445 0.352662
0.831512 0.668778 0.346216
0.984127 0.666110 0.339769
1.000000 0.665546 0.337844
0.000000 0.829961 0.369936
0.070885 0.828247 0.365793
0.223500 0.825579 0.359347
0.376115 0.822911 0.352900
0.528730 0.820244 0.346453
0.681345 0.817576 0.340006
0.833960 0.814908 0.333559
0.986576 0.812240 0.327112
1.000000 0.811805 0.325315
0.000000 0.976092 0.357279
0.073333 0.974378 0.353137
0.225948 0.971710 0.346690
0.378563 0.969042 0.340243
0.531179 0.966374 0.333796
0.683794 0.963707 0.327349
0.836409 0.961039 0.320902
0.989024 0.958371 0.314456
1.000000 0.958063 0.312786
0.000000 1.000000 0.352951
0.074444 1.000000 0.348807
0.227057 1.000000 0.342358
0.379670 1.000000 0.335909
0.532283 1.000000 0.329460
0.684896 1.000000 0.323011
0.837509 1.000000 0.316561
0.990122 1.000000 0.310112
1.000000 1.000000 0.308488
0.000000 0.003763 0.589635
0.057545 0.002676 0.586119
0.210160 0.000009 0.579672
0.362775 0.000000 0.573225
0.515390 0.000000 0.566779
0.668005 0.000000 0.560332
0.820620 0.000000 0.553885
0.973236 0.000000 0.547438
1.000000 0.000000 0.545116
0.000000 0.097746 0.581584
0.059118 0.096577 0.577986
0.211733 0.093909 0.571539
0.364348 0.091241 0.565093
0.516963 0.088573 0.558646
0.669579 0.085906 0.552199
0.822194 0.083238 0.545752
0.974809 0.080570 0.539305
1.000000 0.079609 0.536983
0.000000 0.244004 0.569055
0.061566 0.242707 0.565330
0.214182 0.240040 0.558883
0.366797 0.237372 0.552436
0.519412 0.234704 0.545989
0.672027 0.232036 0.539542
0.824642 0.229369 0.533095
0.977257 0.226701 0.526648
1.000000 0.225779 0.524365
0.000000 0.390263 0.556526
0.064015 0.388838 0.552673
0.216630 0.386170 0.546226
0.369245 0.383502 0.539779
0.521860 0.380835 0.533333
0.674476 0.378167 0.526886
0.827091 0.375499 0.520439
0.979706 0.372831 0.513992
1.000000 0.372037 0.511836
0.000000 0.536521 0.543998
0.066463 0.534969 0.540017
0.219078 0.532301 0.533570
0.371694 0.529633 0.527123
0.524309 0.526965 0.520676
0.676924 0.524298 0.514229
0.829539 0.521630 0.507782
0.982154 0.518962 0.501335
1.000000 0.518295 0.499307
0.000000 0.682780 0.531469
0.068912 0.681099 0.527360
0.221527 0.678431 0.520913
0.374142 0.675764 0.514466
0.526757 0.673096 0.508019
0.679372 0.670428 0.501572
0.831988 0.667760 0.495126
0.984603 0.665093 0.488679
1.000000 0.664554 0.486779
0.000000 0.828944 0.518846
0.071360 0.827230 0.514703
0.223975 0.824562 0.508257
0.376590 0.821894 0.501810
0.529206 0.819227 0.495363
0.681821 0.816559 0.488916
0.834436 0.813891 0.482469
0.987051 0.811223 0.476022
1.000000 0.810812 0.474250
0.000000 0.975075 0.506189
0.073809 0.973360 0.502047
0.226424 0.970693 0.495600
0.379039 0.968025 0.489153
0.531654 0.965357 0.482706
0.684269 0.962689 0.476259
0.836884 0.960022 0.469812
0.989500 0.957354 0.463366
1.000000 0.957071 0.461721
0.000000 1.000000 0.501860
0.074919 1.000000 0.497716
0.227532 1.000000 0.491267
0.380145 1.000000 0.484818
0.532758 1.000000 0.478369
0.685371 1.000000 0.471920
0.837984 1.000000 0.465471
0.990597 1.000000 0.459021
1.000000 1.000000 0.457422
0.000000 0.002771 0.738569
0.058020 0.001659 0.735029
0.210635 0.000000 0.728582
0.363251 0.000000 0.722135
0.515866 0.000000 0.715689
0.668481 0.000000 0.709242
0.821096 0.000000 0.702795
0.973711 0.000000 0.696348
1.000000 0.000000 0.694026
0.000000 0.096754 0.730519
0.059594 0.095559 0.726896
0.212209 0.092892 0.720449
0.364824 0.090224 0.714003
0.517439 0.087556 0.707556
0.670054 0.084888 0.701109
0.822669 0.082221 0.694662
0.975284 0.079553 0.688215
1.000000 0.078592 0.685893
0.000000 0.243012 0.717990
0.062042 0.241690 0.714240
0.214657 0.239022 0.707793
0.367272 0.236355 0.701346
0.519887 0.233687 0.694899
0.672503 0.231019 0.688452
0.825118 0.228351 0.682005
0.977733 0.225684 0.675558
1.000000 0.224786 0.673300
0.000000 0.389270 0.705461
0.064490 0.387821 0.701583
0.217106 0.385153 0.695136
0.369721 0.382485 0.688689
0.522336 0.379818 0.682243
0.674951 0.377150 0.675796
0.827566 0.374482 0.669349
0.980181 0.371814 0.662902
1.000000 0.371045 0.660771
0.000000 0.535529 0.692932
0.066939 0.533951 0.688927
0.219554 0.531284 0.682480
0.372169 0.528616 0.676033
0.524784 0.525948 0.669586
0.677399 0.523280 0.663139
0.830015 0.520613 0.656692
0.982630 0.517945 0.650245
1.000000 0.517303 0.648242
0.000000 0.681787 0.680404
0.069387 0.680082 0.676270
0.222002 0.677414 0.669823
0.374618 0.674747 0.663376
0.527233 0.672079 0.656929
0.679848 0.669411 0.650482
0.832463 0.666743 0.644036
0.985078 0.664076 0.637589
1.000000 0.663562 0.635713
0.000000 0.827927 0.667756
0.071836 0.826213 0.663613
0.224451 0.823545 0.657167
0.377066 0.820877 0.650720
0.529681 0.818209 0.644273
0.682296 0.815542 0.637826
0.834911 0.812874 0.631379
0.987527 0.810206 0.624932
1.000000 0.809820 0.623185
0.000000 0.974058 0.655099
0.074284 0.972343 0.650957
0.226899 0.969676 0.644510
0.379514 0.967008 0.638063
0.532130 0.964340 0.631616
0.684745 0.961672 0.625169
0.837360 0.959005 0.618722
0.989975 0.956337 0.612276
1.000000 0.956079 0.610656
0.000000 1.000000 0.650769
0.075394 1.000000 0.646625
0.228007 1.000000 0.640176
0.380620 1.000000 0.633727
0.533232 1.000000 0.627278
0.685845 1.000000 0.620829
0.838458 1.000000 0.614380
0.991071 1.000000 0.607931
1.000000 1.000000 0.606356
0.000000 0.001779 0.887504
0.058496 0.000642 0.883939
0.211111 0.000000 0.877492
0.363726 0.000000 0.871045
0.516341 0.000000 0.864599
0.668956 0.000000 0.858152
0.821571 0.000000 0.851705
0.974187 0.000000 0.845258
1.000000 0.000000 0.842936
0.000000 0.095761 0.879454
0.060069 0.094542 0.875806
0.212684 0.091875 0.869359
0.365299 0.089207 0.862913
0.517914 0.086539 0.856466
0.670530 0.083871 0.850019
0.823145 0.081204 0.843572
0.975760 0.078536 0.837125
1.000000 0.077575 0.834803
0.000000 0.242020 0.866925
0.062517 0.240673 0.863150
0.215133 0.238005 0.856703
0.367748 0.235337 0.850256
0.520363 0.232670 0.843809
0.672978 0.230002 0.837362
0.825593 0.227334 0.830915
0.978208 0.224666 0.824468
1.000000 0.223794 0.822235
0.000000 0.388278 0.854396
0.064966 0.386804 0.850493
0.217581 0.384136 0.844046
0.370196 0.381468 0.837599
0.522811 0.378800 0.831153
0.675427 0.376133 0.824706
0.828042 0.373465 0.818259
0.980657 0.370797 0.811812
1.000000 0.370052 0.809706
0.000000 0.534537 0.841867
0.067414 0.532934 0.837837
0.220029 0.530267 0.831390
0.372645 0.527599 0.824943
0.525260 0.524931 0.818496
0.677875 0.522263 0.812049
0.830490 0.519596 0.805602
0.983105 0.516928 0.799155
1.000000 0.516311 0.797177
0.000000 0.680779 0.829323
0.069863 0.679065 0.825180
0.222478 0.676397 0.818733
0.375093 0.673729 0.812286
0.527708 0.671062 0.805839
0.680323 0.668394 0.799392
0.832939 0.665726 0.792946
0.985554 0.663058 0.786499
1.000000 0.662569 0.784648
0.000000 0.826910 0.816666
0.072311 0.825196 0.812523
0.224926 0.822528 0.806077
0.377541 0.819860 0.799630
0.530157 0.817192 0.793183
0.682772 0.814525 0.786736
0.835387 0.811857 0.780289
0.988002 0.809189 0.773842
1.000000 0.808828 0.772119
0.000000 0.973040 0.804009
0.074760 0.971326 0.799867
0.227375 0.968658 0.793420
0.379990 0.965991 0.786973
0.532605 0.963323 0.780526
0.685220 0.960655 0.774079
0.837835 0.957987 0.767632
0.990451 0.955320 0.761186
1.000000 0.955086 0.759591
0.000000 1.000000 0.799679
0.075868 1.000000 0.795534
0.228481 1.000000 0.789085
0.381094 1.000000 0.782636
0.533707 1.000000 0.776187
0.686320 1.000000 0.769738
0.838933 1.000000 0.763289
0.991546 1.000000 0.756840
1.000000 1.000000 0.755290
0.000000 0.000787 1.000000
0.058971 0.000000 1.000000
0.211586 0.000000 1.000000
0.364202 0.000000 1.000000
0.516817 0.000000 1.000000
0.669432 0.000000 1.000000
0.822047 0.000000 1.000000
0.974662 0.000000 0.994168
1.000000 0.000000 0.991846
0.000000 0.094769 1.000000
0.060545 0.093525 1.000000
0.213160 0.090857 1.000000
0.365775 0.088190 1.000000
0.518390 0.085522 1.000000
0.671005 0.082854 0.998929
0.823620 0.080186 0.992482
0.976235 0.077519 0.986035
1.000000 0.076558 0.983713
0.000000 0.241027 1.000000
0.062993 0.239656 1.000000
0.215608 0.236988 1.000000
0.368223 0.234320 0.999166
0.520838 0.231653 0.992719
0.673454 0.228985 0.986272
0.826069 0.226317 0.979825
0.978684 0.223649 0.973378
1.000000 0.222802 0.971169
0.000000 0.387286 1.000000
0.065441 0.385787 0.999403
0.218057 0.383119 0.992956
0.370672 0.380451 0.986509
0.523287 0.377783 0.980063
0.675902 0.375116 0.973616
0.828517 0.372448 0.967169
0.981132 0.369780 0.960722
1.000000 0.369060 0.958641
0.000000 0.533544 0.990802
0.067890 0.531917 0.986747
0.220505 0.529249 0.980300
0.373120 0.526582 0.973853
0.525735 0.523914 0.967406
0.678350 0.521246 0.960959
0.830966 0.518578 0.954512
0.983581 0.515911 0.948065
1.000000 0.515319 0.946112
0.000000 0.679762 0.978233
0.070338 0.678048 0.974090
0.222953 0.675380 0.967643
0.375569 0.672712 0.961196
0.528184 0.670045 0.954749
0.680799 0.667377 0.948302
0.833414 0.664709 0.941856
0.986029 0.662041 0.935409
1.000000 0.661577 0.933583
0.000000 0.825893 0.965576
0.072787 0.824178 0.961433
0.225402 0.821511 0.954987
0.378017 0.818843 0.948540
0.530632 0.816175 0.942093
0.683247 0.813507 0.935646
0.835862 0.810840 0.929199
0.988478 0.808172 0.922752
1.000000 0.807835 0.921054
0.000000 0.972023 0.952919
0.075235 0.970309 0.948777
0.227850 0.967641 0.942330
0.380465 0.964974 0.935883
0.533081 0.962306 0.929436
0.685696 0.959638 0.922989
0.838311 0.956970 0.916542
0.990926 0.954303 0.910096
1.000000 0.954094 0.908526
0.000000 1.000000 0.948588
0.076343 1.000000 0.944444
0.228956 1.000000 0.937994
0.381569 1.000000 0.931545
0.534182 1.000000 0.925096
0.686795 1.000000 0.918647
0.839408 1.000000 0.912198
0.992020 1.000000 0.905749
1.000000 1.000000 0.904224
0.000000 0.000671 1.000000
0.059368 0.000000 1.000000
0.211958 0.000000 1.000000
0.364549 0.000000 1.000000
0.517139 0.000000 1.000000
0.669729 0.000000 1.000000
0.822320 0.000000 1.000000
0.974910 0.000000 1.000000
1.000000 0.000000 1.000000
0.000000 0.094622 1.000000
0.060910 0.093353 1.000000
0.213500 0.090660 1.000000
0.366091 0.087968 1.000000
0.518681 0.085275 1.000000
0.671271 0.082583 1.000000
0.823862 0.079890 1.000000
0.976452 0.077198 1.000000
1.000000 0.076228 1.000000
0.000000 0.240831 1.000000
0.063310 0.239435 1.000000
0.215900 0.236742 1.000000
0.368490 0.234050 1.000000
0.521081 0.231357 1.000000
0.673671 0.228665 1.000000
0.826261 0.225972 1.000000
0.978855 0.223283 1.000000
1.000000 0.222444 1.000000
0.000000 0.387041 1.000000
0.065709 0.385517 1.000000
0.218300 0.382824 1.000000
0.370890 0.380132 1.000000
0.523480 0.377439 1.000000
0.676073 0.374749 1.000000
0.828688 0.372081 1.000000
0.981304 0.369414 1.000000
1.000000 0.368703 1.000000
0.000000 0.533251 1.000000
0.068109 0.531599 1.000000
0.220699 0.528906 1.000000
0.373291 0.526215 1.000000
0.525907 0.523548 1.000000
0.678522 0.520880 1.000000
0.831137 0.518212 1.000000
0.983752 0.515544 1.000000
1.000000 0.514961 0.999762
0.000000 0.679411 1.000000
0.070510 0.677681 1.000000
0.223125 0.675014 1.000000
0.375740 0.672346 1.000000
0.528355 0.669678 1.000000
0.680970 0.667010 1.000000
0.833585 0.664343 0.995497
0.986200 0.661675 0.989050
1.000000 0.661220 0.987233
0.000000 0.825526 1.000000
0.072958 0.823812 1.000000
0.225573 0.821144 1.000000
0.378188 0.818477 1.000000
0.530803 0.815809 0.995734
0.683419 0.813141 0.989287
0.836034 0.810473 0.982840
0.988649 0.807806 0.976393
1.000000 0.807478 0.974704
0.000000 0.971657 1.000000
0.075406 0.969943 1.000000
0.228022 0.967275 0.995971
0.380637 0.964607 0.989524
0.533252 0.961939 0.983077
0.685867 0.959272 0.976630
0.838482 0.956604 0.970183
0.991097 0.953936 0.963737
1.000000 0.953736 0.962175
0.000000 1.000000 1.000000
0.076514 1.000000 0.998084
0.229127 1.000000 0.991635
0.381740 1.000000 0.985186
0.534353 1.000000 0.978737
0.686966 1.000000 0.972288
0.839579 1.000000 0.965839
0.992191 1.000000 0.959389
1.000000 1.000000 0.957874
