assets/luts/cinematic.cube
TITLE "The Data Lens Cinematic"
LUT_3D_SIZE 33
0.000000 0.007378 0.047128
0.000000 0.007378 0.047128
0.000000 0.007372 0.046583
0.017659 0.007048 0.045315
0.055813 0.006381 0.043703
0.093966 0.005714 0.042091
0.132120 0.005048 0.040480
0.170274 0.004381 0.038868
0.208428 0.003714 0.037256
0.246582 0.003047 0.035644
0.284735 0.002380 0.034033
0.322889 0.001713 0.032421
0.361043 0.001046 0.030809
0.399197 0.000379 0.029198
0.437351 0.000000 0.027586
0.475504 0.000000 0.025974
0.513658 0.000000 0.024362
0.551812 0.000000 0.022751
0.589966 0.000000 0.021139
0.628119 0.000000 0.019527
0.666273 0.000000 0.017916
0.704427 0.000000 0.016304
0.742581 0.000000 0.014692
0.780735 0.000000 0.013080
0.818888 0.000000 0.011469
0.857042 0.000000 0.009857
0.895196 0.000000 0.008245
0.933350 0.000000 0.006633
0.971504 0.000000 0.005022
1.000000 0.000000 0.003410
1.000000 0.000000 0.002699
1.000000 0.000000 0.002699
1.000000 0.000000 0.002699
0.000000 0.007378 0.047128
0.000000 0.007378 0.047128
0.000000 0.007372 0.046583
0.017659 0.007048 0.045315
0.055813 0.006381 0.043703
0.093966 0.005714 0.042091
0.132120 0.005048 0.040480
0.170274 0.004381 0.038868
0.208428 0.003714 0.037256
0.246582 0.003047 0.035644
0.284735 0.002380 0.034033
0.322889 0.001713 0.032421
0.361043 0.001046 0.030809
0.399197 0.000379 0.029198
0.437351 0.000000 0.027586
0.475504 0.000000 0.025974
0.513658 0.000000 0.024362
0.551812 0.000000 0.022751
0.589966 0.000000 0.021139
0.628119 0.000000 0.019527
0.666273 0.000000 0.017916
0.704427 0.000000 0.016304
0.742581 0.000000 0.014692
0.780735 0.000000 0.013080
0.818888 0.000000 0.011469
0.857042 0.000000 0.009857
0.895196 0.000000 0.008245
0.933350 0.000000 0.006633
0.971504 0.000000 0.005022
1.000000 0.000000 0.003410
1.000000 0.000000 0.002699
1.000000 0.000000 0.002699
1.000000 0.000000 0.002699
0.000000 0.028231 0.045342
0.000000 0.028231 0.045342
0.000000 0.028225 0.044797
0.018008 0.027883 0.043510
0.056162 0.027216 0.041898
0.094316 0.026549 0.040287
0.132469 0.025882 0.038675
0.170623 0.025215 0.037063
0.208777 0.024549 0.035452
0.246931 0.023882 0.033840
0.285084 0.023215 0.032228
0.323238 0.022548 0.030616
0.361392 0.021881 0.029005
0.399546 0.021214 0.027393
0.437700 0.020547 0.025781
0.475853 0.019880 0.024170
0.514007 0.019213 0.022558
0.552161 0.018546 0.020946
0.590315 0.017879 0.019334
0.628469 0.017212 0.017723
0.666622 0.016545 0.016111
0.704776 0.015878 0.014499
0.742930 0.015211 0.012888
0.781084 0.014544 0.011276
0.819238 0.013878 0.009664
0.857391 0.013211 0.008052
0.895545 0.012544 0.006441
0.933699 0.011877 0.004829
0.971853 0.011210 0.003217
1.000000 0.010543 0.001606
1.000000 0.010249 0.000895
1.000000 0.010249 0.000895
1.000000 0.010249 0.000895
0.000000 0.064796 0.042210
0.000000 0.064796 0.042210
0.000000 0.064790 0.041665
0.018620 0.064416 0.040346
0.056774 0.063749 0.038734
0.094928 0.063082 0.037123
0.133081 0.062415 0.035511
0.171235 0.061748 0.033899
0.209389 0.061081 0.032287
0.247543 0.060414 0.030676
0.285697 0.059747 0.029064
0.323850 0.059080 0.027452
0.362004 0.058413 0.025841
0.400158 0.057747 0.024229
0.438312 0.057080 0.022617
0.476466 0.056413 0.021005
0.514619 0.055746 0.019394
0.552773 0.055079 0.017782
0.590927 0.054412 0.016170
0.629081 0.053745 0.014559
0.667234 0.053078 0.012947
0.705388 0.052411 0.011335
0.743542 0.051744 0.009723
0.781696 0.051077 0.008112
0.819850 0.050410 0.006500
0.858003 0.049743 0.004888
0.896157 0.049076 0.003277
0.934311 0.048409 0.001665
0.972465 0.047742 0.000053
1.000000 0.047076 0.000000
1.000000 0.046781 0.000000
1.000000 0.046781 0.000000
1.000000 0.046781 0.000000
0.000000 0.101360 0.039077
0.000000 0.101360 0.039077
0.000000 0.101355 0.038533
0.019232 0.100949 0.037182
0.057386 0.100282 0.035570
0.095540 0.099615 0.033958
0.133694 0.098948 0.032347
0.171847 0.098281 0.030735
0.210001 0.097614 0.029123
0.248155 0.096947 0.027512
0.286309 0.096280 0.025900
0.324462 0.095613 0.024288
0.362616 0.094946 0.022676
0.400770 0.094279 0.021065
0.438924 0.093612 0.019453
0.477078 0.092945 0.017841
0.515231 0.092278 0.016230
0.553385 0.091611 0.014618
0.591539 0.090944 0.013006
0.629693 0.090278 0.011394
0.667847 0.089611 0.009783
0.706000 0.088944 0.008171
0.744154 0.088277 0.006559
0.782308 0.087610 0.004948
0.820462 0.086943 0.003336
0.858616 0.086276 0.001724
0.896769 0.085609 0.000112
0.934923 0.084942 0.000000
0.973077 0.084275 0.000000
1.000000 0.083608 0.000000
1.000000 0.083314 0.000000
1.000000 0.083314 0.000000
1.000000 0.083314 0.000000
0.000000 0.137925 0.035945
0.000000 0.137925 0.035945
0.000000 0.137919 0.035401
0.019844 0.137481 0.034018
0.057998 0.136814 0.032406
0.096152 0.136147 0.030794
0.134306 0.135480 0.029183
0.172459 0.134813 0.027571
0.210613 0.134147 0.025959
0.248767 0.133480 0.024347
0.286921 0.132813 0.022736
0.325075 0.132146 0.021124
0.363228 0.131479 0.019512
0.401382 0.130812 0.017901
0.439536 0.130145 0.016289
0.477690 0.129478 0.014677
0.515844 0.128811 0.013065
0.553997 0.128144 0.011454
0.592151 0.127477 0.009842
0.630305 0.126810 0.008230
0.668459 0.126143 0.006619
0.706612 0.125476 0.005007
0.744766 0.124809 0.003395
0.782920 0.124142 0.001783
0.821074 0.123476 0.000172
0.859228 0.122809 0.000000
0.897381 0.122142 0.000000
0.935535 0.121475 0.000000
0.973689 0.120808 0.000000
1.000000 0.120141 0.000000
1.000000 0.119847 0.000000
1.000000 0.119847 0.000000
1.000000 0.119847 0.000000
0.000000 0.174490 0.032813
0.000000 0.174490 0.032813
0.000000 0.174484 0.032268
0.020456 0.174014 0.030854
0.058610 0.173347 0.029242
0.096764 0.172680 0.027630
0.134918 0.172013 0.026018
0.173072 0.171346 0.024407
0.211225 0.170679 0.022795
0.249379 0.170012 0.021183
0.287533 0.169345 0.019572
0.325687 0.168678 0.017960
0.363840 0.168011 0.016348
0.401994 0.167344 0.014736
0.440148 0.166678 0.013125
0.478302 0.166011 0.011513
0.516456 0.165344 0.009901
0.554609 0.164677 0.008290
0.592763 0.164010 0.006678
0.630917 0.163343 0.005066
0.669071 0.162676 0.003454
0.707225 0.162009 0.001843
0.745378 0.161342 0.000231
0.783532 0.160675 0.000000
0.821686 0.160008 0.000000
0.859840 0.159341 0.000000
0.897994 0.158674 0.000000
0.936147 0.158007 0.000000
0.974301 0.157340 0.000000
1.000000 0.156673 0.000000
1.000000 0.156379 0.000000
1.000000 0.156379 0.000000
1.000000 0.156379 0.000000
0.000000 0.211054 0.029681
0.000000 0.211054 0.029681
0.000000 0.211048 0.029136
0.021068 0.210547 0.027689
0.059222 0.209880 0.026078
0.097376 0.209213 0.024466
0.135530 0.208546 0.022854
0.173684 0.207879 0.021243
0.211837 0.207212 0.019631
0.249991 0.206545 0.018019
0.288145 0.205878 0.016407
0.326299 0.205211 0.014796
0.364453 0.204544 0.013184
0.402606 0.203877 0.011572
0.440760 0.203210 0.009961
0.478914 0.202543 0.008349
0.517068 0.201876 0.006737
0.555222 0.201209 0.005125
0.593375 0.200542 0.003514
0.631529 0.199876 0.001902
0.669683 0.199209 0.000290
0.707837 0.198542 0.000000
0.745990 0.197875 0.000000
0.784144 0.197208 0.000000
0.822298 0.196541 0.000000
0.860452 0.195874 0.000000
0.898606 0.195207 0.000000
0.936759 0.194540 0.000000
0.974913 0.193873 0.000000
1.000000 0.193206 0.000000
1.000000 0.192912 0.000000
1.000000 0.192912 0.000000
1.000000 0.192912 0.000000
0.000000 0.247619 0.026549
0.000000 0.247619 0.026549
0.000000 0.247613 0.026004
0.021681 0.247079 0.024525
0.059834 0.246412 0.022914
0.097988 0.245745 0.021302
0.136142 0.245078 0.019690
0.174296 0.244411 0.018078
0.212450 0.243745 0.016467
0.250603 0.243078 0.014855
0.288757 0.242411 0.013243
0.326911 0.241744 0.011632
0.365065 0.241077 0.010020
0.403218 0.240410 0.008408
0.441372 0.239743 0.006796
0.479526 0.239076 0.005185
0.517680 0.238409 0.003573
0.555834 0.237742 0.001961
0.593987 0.237075 0.000350
0.632141 0.236408 0.000000
0.670295 0.235741 0.000000
0.708449 0.235074 0.000000
0.746603 0.234407 0.000000
0.784756 0.233740 0.000000
0.822910 0.233074 0.000000
0.861064 0.232407 0.000000
0.899218 0.231740 0.000000
0.937372 0.231073 0.000000
0.975525 0.230406 0.000000
1.000000 0.229739 0.000000
1.000000 0.229445 0.000000
1.000000 0.229445 0.000000
1.000000 0.229445 0.000000
0.000000 0.284183 0.023416
0.000000 0.284183 0.023416
0.000000 0.284178 0.022872
0.022293 0.283612 0.021361
0.060446 0.282945 0.019749
0.098600 0.282278 0.018138
0.136754 0.281611 0.016526
0.174908 0.280944 0.014914
0.213062 0.280277 0.013303
0.251215 0.279610 0.011691
0.289369 0.278943 0.010079
0.327523 0.278276 0.008467
0.365677 0.277609 0.006856
0.403831 0.276942 0.005244
0.441984 0.276276 0.003632
0.480138 0.275609 0.002021
0.518292 0.274942 0.000409
0.556446 0.274275 0.000000
0.594600 0.273608 0.000000
0.632753 0.272941 0.000000
0.670907 0.272274 0.000000
0.709061 0.271607 0.000000
0.747215 0.270940 0.000000
0.785368 0.270273 0.000000
0.823522 0.269606 0.000000
0.861676 0.268939 0.000000
0.899830 0.268272 0.000000
0.937984 0.267605 0.000000
0.976137 0.266938 0.000000
1.000000 0.266271 0.000000
1.000000 0.265977 0.000000
1.000000 0.265977 0.000000
1.000000 0.265977 0.000000
0.000000 0.320748 0.020284
0.000000 0.320748 0.020284
0.000000 0.320742 0.019740
0.022905 0.320145 0.018197
0.061059 0.319478 0.016585
0.099212 0.318811 0.014974
0.137366 0.318144 0.013362
0.175520 0.317477 0.011750
0.213674 0.316810 0.010138
0.251828 0.316143 0.008527
0.289981 0.315476 0.006915
0.328135 0.314809 0.005303
0.366289 0.314142 0.003692
0.404443 0.313475 0.002080
0.442596 0.312808 0.000468
0.480750 0.312141 0.000000
0.518904 0.311474 0.000000
0.557058 0.310807 0.000000
0.595212 0.310140 0.000000
0.633365 0.309474 0.000000
0.671519 0.308807 0.000000
0.709673 0.308140 0.000000
0.747827 0.307473 0.000000
0.785981 0.306806 0.000000
0.824134 0.306139 0.000000
0.862288 0.305472 0.000000
0.900442 0.304805 0.000000
0.938596 0.304138 0.000000
0.976750 0.303471 0.000000
1.000000 0.302804 0.000000
1.000000 0.302522 0.000000
1.000000 0.302522 0.000000
1.000000 0.302522 0.000000
0.000000 0.357313 0.017152
0.000000 0.357313 0.017152
0.000000 0.357307 0.016607
0.023517 0.356677 0.015033
0.061671 0.356010 0.013421
0.099824 0.355343 0.011809
0.137978 0.354676 0.010198
0.176132 0.354009 0.008586
0.214286 0.353342 0.006974
0.252440 0.352676 0.005363
0.290593 0.352009 0.003751
0.328747 0.351342 0.002139
0.366901 0.350675 0.000527
0.405055 0.350008 0.000000
0.443209 0.349341 0.000000
0.481362 0.348674 0.000000
0.519516 0.348007 0.000000
0.557670 0.347340 0.000000
0.595824 0.346673 0.000000
0.633978 0.346006 0.000000
0.672131 0.345339 0.000000
0.710285 0.344672 0.000000
0.748439 0.344005 0.000000
0.786593 0.343338 0.000000
0.824746 0.342671 0.000000
0.862900 0.342005 0.000000
0.901054 0.341338 0.000000
0.939208 0.340671 0.000000
0.977362 0.340004 0.000000
1.000000 0.339337 0.000000
1.000000 0.339087 0.000000
1.000000 0.339087 0.000000
1.000000 0.339087 0.000000
0.000000 0.393877 0.014020
0.000000 0.393877 0.014020
0.000000 0.393871 0.013475
0.024129 0.393210 0.011869
0.062283 0.392543 0.010257
0.100437 0.391876 0.008645
0.138590 0.391209 0.007034
0.176744 0.390542 0.005422
0.214898 0.389875 0.003810
0.253052 0.389208 0.002198
0.291206 0.388541 0.000587
0.329359 0.387874 0.000000
0.367513 0.387207 0.000000
0.405667 0.386540 0.000000
0.443821 0.385874 0.000000
0.481974 0.385207 0.000000
0.520128 0.384540 0.000000
0.558282 0.383873 0.000000
0.596436 0.383206 0.000000
0.634590 0.382539 0.000000
0.672743 0.381872 0.000000
0.710897 0.381205 0.000000
0.749051 0.380538 0.000000
0.787205 0.379871 0.000000
0.825359 0.379204 0.000000
0.863512 0.378537 0.000000
0.901666 0.377870 0.000000
0.939820 0.377203 0.000000
0.977974 0.376536 0.000000
1.000000 0.375869 0.000000
1.000000 0.375652 0.000000
1.000000 0.375652 0.000000
1.000000 0.375652 0.000000
0.000000 0.430442 0.010888
0.000000 0.430442 0.010888
0.000000 0.430409 0.010316
0.024741 0.429743 0.008705
0.062895 0.429076 0.007093
0.101049 0.428409 0.005481
0.139202 0.427742 0.003869
0.177356 0.427075 0.002258
0.215510 0.426408 0.000646
0.253664 0.425741 0.000000
0.291818 0.425074 0.000000
0.329971 0.424407 0.000000
0.368125 0.423740 0.000000
0.406279 0.423073 0.000000
0.444433 0.422406 0.000000
0.482587 0.421739 0.000000
0.520740 0.421072 0.000000
0.558894 0.420405 0.000000
0.597048 0.419738 0.000000
0.635202 0.419072 0.000000
0.673356 0.418405 0.000000
0.711509 0.417738 0.000000
0.749663 0.417071 0.000000
0.787817 0.416404 0.000000
0.825971 0.415737 0.000000
0.864124 0.415070 0.000000
0.902278 0.414403 0.000000
0.940432 0.413736 0.000000
0.978586 0.413069 0.000000
1.000000 0.412398 0.000000
1.000000 0.412209 0.000000
1.000000 0.412209 0.000000
1.000000 0.412209 0.000000
0.000000 0.467007 0.007755
0.000000 0.467007 0.007755
0.000000 0.466942 0.007152
0.025353 0.466275 0.005540
0.063507 0.465608 0.003929
0.101661 0.464941 0.002317
0.139815 0.464274 0.000705
0.177968 0.463607 0.000000
0.216122 0.462940 0.000000
0.254276 0.462274 0.000000
0.292430 0.461607 0.000000
0.330584 0.460940 0.000000
0.368737 0.460273 0.000000
0.406891 0.459606 0.000000
0.445045 0.458939 0.000000
0.483199 0.458272 0.000000
0.521352 0.457605 0.000000
0.559506 0.456938 0.000000
0.597660 0.456271 0.000000
0.635814 0.455604 0.000000
0.673968 0.454937 0.000000
0.712121 0.454270 0.000000
0.750275 0.453603 0.000000
0.788429 0.452936 0.000000
0.826583 0.452269 0.000000
0.864737 0.451603 0.000000
0.902890 0.450936 0.000000
0.941040 0.450265 0.000000
0.979188 0.449591 0.000000
1.000000 0.448918 0.000000
1.000000 0.448762 0.000000
1.000000 0.448762 0.000000
1.000000 0.448762 0.000000
0.000000 0.503571 0.004623
0.000000 0.503571 0.004623
0.000000 0.503475 0.003988
0.025965 0.502808 0.002376
0.064119 0.502141 0.000765
0.102273 0.501474 0.000000
0.140427 0.500807 0.000000
0.178581 0.500140 0.000000
0.216734 0.499473 0.000000
0.254888 0.498806 0.000000
0.293042 0.498139 0.000000
0.331196 0.497472 0.000000
0.369349 0.496805 0.000000
0.407503 0.496138 0.000000
0.445657 0.495472 0.000000
0.483811 0.494805 0.000000
0.521965 0.494138 0.000000
0.560118 0.493471 0.000000
0.598272 0.492804 0.000000
0.636426 0.492137 0.000000
0.674580 0.491470 0.000000
0.712734 0.490803 0.000000
0.750887 0.490136 0.000000
0.789041 0.489469 0.000000
0.827195 0.488802 0.000000
0.865345 0.488131 0.000000
0.903492 0.487458 0.000000
0.941640 0.486785 0.000000
0.979788 0.486112 0.000000
1.000000 0.485439 0.000000
1.000000 0.485314 0.000000
1.000000 0.485314 0.000000
1.000000 0.485314 0.000000
0.000000 0.540136 0.001491
0.000000 0.540136 0.001491
0.000000 0.540007 0.000824
0.026577 0.539340 0.000000
0.064731 0.538674 0.000000
0.102885 0.538007 0.000000
0.141039 0.537340 0.000000
0.179193 0.536673 0.000000
0.217346 0.536006 0.000000
0.255500 0.535339 0.000000
0.293654 0.534672 0.000000
0.331808 0.534005 0.000000
0.369962 0.533338 0.000000
0.408115 0.532671 0.000000
0.446269 0.532004 0.000000
0.484423 0.531337 0.000000
0.522577 0.530670 0.000000
0.560731 0.530003 0.000000
0.598884 0.529336 0.000000
0.637038 0.528669 0.000000
0.675192 0.528003 0.000000
0.713346 0.527336 0.000000
0.751499 0.526669 0.000000
0.789650 0.525998 0.000000
0.827797 0.525325 0.000000
0.865945 0.524652 0.000000
0.904092 0.523979 0.000000
0.942240 0.523306 0.000000
0.980388 0.522632 0.000000
1.000000 0.521959 0.000000
1.000000 0.521866 0.000000
1.000000 0.521866 0.000000
1.000000 0.521866 0.000000
0.000000 0.576700 0.000000
0.000000 0.576700 0.000000
0.000000 0.576540 0.000000
0.027190 0.575873 0.000000
0.065343 0.575206 0.000000
0.103497 0.574539 0.000000
0.141651 0.573872 0.000000
0.179805 0.573205 0.000000
0.217959 0.572538 0.000000
0.256112 0.571872 0.000000
0.294266 0.571205 0.000000
0.332420 0.570538 0.000000
0.370574 0.569871 0.000000
0.408727 0.569204 0.000000
0.446881 0.568537 0.000000
0.485035 0.567870 0.000000
0.523189 0.567203 0.000000
0.561343 0.566536 0.000000
0.599496 0.565869 0.000000
0.637650 0.565202 0.000000
0.675804 0.564535 0.000000
0.713954 0.563865 0.000000
0.752102 0.563192 0.000000
0.790250 0.562519 0.000000
0.828397 0.561845 0.000000
0.866545 0.561172 0.000000
0.904692 0.560499 0.000000
0.942840 0.559826 0.000000
0.980987 0.559153 0.000000
1.000000 0.558480 0.000000
1.000000 0.558419 0.000000
1.000000 0.558419 0.000000
1.000000 0.558419 0.000000
0.000000 0.613265 0.000000
0.000000 0.613265 0.000000
0.000000 0.613073 0.000000
0.027802 0.612406 0.000000
0.065955 0.611739 0.000000
0.104109 0.611072 0.000000
0.142263 0.610405 0.000000
0.180417 0.609738 0.000000
0.218571 0.609071 0.000000
0.256724 0.608404 0.000000
0.294878 0.607737 0.000000
0.333032 0.607070 0.000000
0.371186 0.606403 0.000000
0.409340 0.605736 0.000000
0.447493 0.605069 0.000000
0.485647 0.604403 0.000000
0.523801 0.603736 0.000000
0.561955 0.603069 0.000000
0.600109 0.602402 0.000000
0.638259 0.601732 0.000000
0.676407 0.601059 0.000000
0.714554 0.600385 0.000000
0.752702 0.599712 0.000000
0.790849 0.599039 0.000000
0.828997 0.598366 0.000000
0.867145 0.597693 0.000000
0.905292 0.597020 0.000000
0.943440 0.596347 0.000000
0.981587 0.595673 0.000000
1.000000 0.595000 0.000000
1.000000 0.594971 0.000000
1.000000 0.594971 0.000000
1.000000 0.594971 0.000000
0.000000 0.649830 0.000000
0.000000 0.649830 0.000000
0.000000 0.649605 0.000000
0.028414 0.648938 0.000000
0.066568 0.648272 0.000000
0.104721 0.647605 0.000000
0.142875 0.646938 0.000000
0.181029 0.646271 0.000000
0.219183 0.645604 0.000000
0.257337 0.644937 0.000000
0.295490 0.644270 0.000000
0.333644 0.643603 0.000000
0.371798 0.642936 0.000000
0.409952 0.642269 0.000000
0.448105 0.641602 0.000000
0.486259 0.640935 0.000000
0.524413 0.640268 0.000000
0.562564 0.639598 0.000000
0.600712 0.638925 0.000000
0.638859 0.638252 0.000000
0.677007 0.637579 0.000000
0.715154 0.636906 0.000000
0.753302 0.636233 0.000000
0.791449 0.635560 0.000000
0.829597 0.634886 0.000000
0.867745 0.634213 0.000000
0.905892 0.633540 0.000000
0.944040 0.632867 0.000000
0.982187 0.632194 0.000000
1.000000 0.631531 0.000000
1.000000 0.631524 0.000000
1.000000 0.631524 0.000000
1.000000 0.631524 0.000000
0.000000 0.686394 0.000000
0.000000 0.686394 0.000000
0.000000 0.686138 0.000000
0.029026 0.685471 0.000000
0.067180 0.684804 0.000000
0.105333 0.684137 0.000000
0.143487 0.683470 0.000000
0.181641 0.682803 0.000000
0.219795 0.682136 0.000000
0.257949 0.681470 0.000000
0.296102 0.680803 0.000000
0.334256 0.680136 0.000000
0.372410 0.679469 0.000000
0.410564 0.678802 0.000000
0.448718 0.678135 0.000000
0.486869 0.677465 0.000000
0.525016 0.676792 0.000000
0.563164 0.676119 0.000000
0.601311 0.675446 0.000000
0.639459 0.674773 0.000000
0.677607 0.674099 0.000000
0.715754 0.673426 0.000000
0.753902 0.672753 0.000000
0.792049 0.672080 0.000000
0.830197 0.671407 0.000000
0.868345 0.670734 0.000000
0.906492 0.670061 0.000000
0.944640 0.669387 0.000000
0.982787 0.668714 0.000000
1.000000 0.668083 0.000000
1.000000 0.668076 0.000000
1.000000 0.668076 0.000000
1.000000 0.668076 0.000000
0.000000 0.722959 0.000000
0.000000 0.722959 0.000000
0.000000 0.722671 0.000000
0.029638 0.722004 0.000000
0.067792 0.721337 0.000000
0.105946 0.720670 0.000000
0.144099 0.720003 0.000000
0.182253 0.719336 0.000000
0.220407 0.718669 0.000000
0.258561 0.718002 0.000000
0.296715 0.717335 0.000000
0.334868 0.716668 0.000000
0.373022 0.716001 0.000000
0.411173 0.715332 0.000000
0.449321 0.714659 0.000000
0.487469 0.713986 0.000000
0.525616 0.713313 0.000000
0.563764 0.712639 0.000000
0.601911 0.711966 0.000000
0.640059 0.711293 0.000000
0.678207 0.710620 0.000000
0.716354 0.709947 0.000000
0.754502 0.709274 0.000000
0.792649 0.708601 0.000000
0.830797 0.707927 0.000000
0.868944 0.707254 0.000000
0.907092 0.706581 0.000000
0.945240 0.705908 0.000000
0.983387 0.705235 0.000000
1.000000 0.704636 0.000000
1.000000 0.704629 0.000000
1.000000 0.704629 0.000000
1.000000 0.704629 0.000000
0.000000 0.759523 0.000000
0.000000 0.759523 0.000000
0.000000 0.759203 0.000000
0.030250 0.758536 0.000000
0.068404 0.757870 0.000000
0.106558 0.757203 0.000000
0.144711 0.756536 0.000000
0.182865 0.755869 0.000000
0.221019 0.755202 0.000000
0.259173 0.754535 0.000000
0.297327 0.753868 0.000000
0.335478 0.753199 0.000000
0.373626 0.752526 0.000000
0.411773 0.751852 0.000000
0.449921 0.751179 0.000000
0.488069 0.750506 0.000000
0.526216 0.749833 0.000000
0.564364 0.749160 0.000000
0.602511 0.748487 0.000000
0.640659 0.747814 0.000000
0.678806 0.747140 0.000000
0.716954 0.746467 0.000000
0.755102 0.745794 0.000000
0.793249 0.745121 0.000000
0.831397 0.744448 0.000000
0.869544 0.743775 0.000000
0.907692 0.743102 0.000000
0.945840 0.742428 0.000000
0.983987 0.741755 0.000000
1.000000 0.741188 0.000000
1.000000 0.741181 0.000000
1.000000 0.741181 0.000000
1.000000 0.741181 0.000000
0.000000 0.796088 0.000000
0.000000 0.796088 0.000000
0.000000 0.795736 0.000000
0.030862 0.795069 0.000000
0.069016 0.794402 0.000000
0.107170 0.793735 0.000000
0.145324 0.793068 0.000000
0.183477 0.792401 0.000000
0.221631 0.791734 0.000000
0.259783 0.791066 0.000000
0.297931 0.790392 0.000000
0.336078 0.789719 0.000000
0.374226 0.789046 0.000000
0.412373 0.788373 0.000000
0.450521 0.787700 0.000000
0.488668 0.787027 0.000000
0.526816 0.786353 0.000000
0.564964 0.785680 0.000000
0.603111 0.785007 0.000000
0.641259 0.784334 0.000000
0.679406 0.783661 0.000000
0.717554 0.782988 0.000000
0.755702 0.782315 0.000000
0.793849 0.781641 0.000000
0.831997 0.780968 0.000000
0.870144 0.780295 0.000000
0.908292 0.779622 0.000000
0.946439 0.778949 0.000000
0.984587 0.778276 0.000000
1.000000 0.777741 0.000000
1.000000 0.777733 0.000000
1.000000 0.777733 0.000000
1.000000 0.777733 0.000000
0.000000 0.832649 0.000000
0.000000 0.832649 0.000000
0.000000 0.832269 0.000000
0.031474 0.831602 0.000000
0.069628 0.830935 0.000000
0.107782 0.830268 0.000000
0.145936 0.829601 0.000000
0.184088 0.828932 0.000000
0.222235 0.828259 0.000000
0.260383 0.827586 0.000000
0.298530 0.826913 0.000000
0.336678 0.826240 0.000000
0.374826 0.825567 0.000000
0.412973 0.824893 0.000000
0.451121 0.824220 0.000000
0.489268 0.823547 0.000000
0.527416 0.822874 0.000000
0.565564 0.822201 0.000000
0.603711 0.821528 0.000000
0.641859 0.820855 0.000000
0.680006 0.820181 0.000000
0.718154 0.819508 0.000000
0.756301 0.818835 0.000000
0.794449 0.818162 0.000000
0.832597 0.817489 0.000000
0.870744 0.816816 0.000000
0.908892 0.816143 0.000000
0.947039 0.815469 0.000000
0.985187 0.814796 0.000000
1.000000 0.814293 0.000000
1.000000 0.814286 0.000000
1.000000 0.814286 0.000000
1.000000 0.814286 0.000000
0.000000 0.869182 0.000000
0.000000 0.869182 0.000000
0.000000 0.868801 0.000000
0.032086 0.868134 0.000000
0.070240 0.867467 0.000000
0.108392 0.866799 0.000000
0.146540 0.866126 0.000000
0.184688 0.865453 0.000000
0.222835 0.864780 0.000000
0.260983 0.864106 0.000000
0.299130 0.863433 0.000000
0.337278 0.862760 0.000000
0.375426 0.862087 0.000000
0.413573 0.861414 0.000000
0.451721 0.860741 0.000000
0.489868 0.860068 0.000000
0.528016 0.859394 0.000000
0.566163 0.858721 0.000000
0.604311 0.858048 0.000000
0.642459 0.857375 0.000000
0.680606 0.856702 0.000000
0.718754 0.856029 0.000000
0.756901 0.855356 0.000000
0.795049 0.854682 0.000000
0.833197 0.854009 0.000000
0.871344 0.853336 0.000000
0.909492 0.852663 0.000000
0.947639 0.851990 0.000000
0.985787 0.851317 0.000000
1.000000 0.850846 0.000000
1.000000 0.850838 0.000000
1.000000 0.850838 0.000000
1.000000 0.850838 0.000000
0.000000 0.905714 0.000000
0.000000 0.905714 0.000000
0.000000 0.905334 0.000000
0.032697 0.904666 0.000000
0.070845 0.903993 0.000000
0.108992 0.903320 0.000000
0.147140 0.902646 0.000000
0.185288 0.901973 0.000000
0.223435 0.901300 0.000000
0.261583 0.900627 0.000000
0.299730 0.899954 0.000000
0.337878 0.899281 0.000000
0.376025 0.898608 0.000000
0.414173 0.897934 0.000000
0.452321 0.897261 0.000000
0.490468 0.896588 0.000000
0.528616 0.895915 0.000000
0.566763 0.895242 0.000000
0.604911 0.894569 0.000000
0.643059 0.893895 0.000000
0.681206 0.893222 0.000000
0.719354 0.892549 0.000000
0.757501 0.891876 0.000000
0.795649 0.891203 0.000000
0.833796 0.890530 0.000000
0.871944 0.889857 0.000000
0.910092 0.889183 0.000000
0.948239 0.888510 0.000000
0.986387 0.887837 0.000000
