assets/luts/cinematic.cube
TITLE "The Data Lens Cinematic"
LUT_3D_SIZE 5
0.000000 0.007378 0.047128
0.208428 0.003714 0.037256
0.513658 0.000000 0.024362
0.818888 0.000000 0.011469
1.000000 0.000000 0.002699
0.000000 0.247619 0.026549
0.212450 0.243745 0.016467
0.517680 0.238409 0.003573
0.822910 0.233074 0.000000
1.000000 0.229445 0.000000
0.000000 0.540136 0.001491
0.217346 0.536006 0.000000
0.522577 0.530670 0.000000
0.827797 0.525325 0.000000
1.000000 0.521866 0.000000
0.000000 0.832649 0.000000
0.222235 0.828259 0.000000
0.527416 0.822874 0.000000
0.832597 0.817489 0.000000
1.000000 0.814286 0.000000
0.000000 1.000000 0.000000
0.225729 1.000000 0.000000
0.530905 1.000000 0.000000
0.836081 1.000000 0.000000
1.000000 1.000000 0.000000
0.000000 0.005748 0.291765
0.209209 0.002043 0.281852
0.514439 0.000000 0.268959
0.819669 0.000000 0.256065
1.000000 0.000000 0.247296
0.000000 0.245989 0.271186
0.213231 0.242074 0.261063
0.518461 0.236738 0.248169
0.823691 0.231403 0.235275
1.000000 0.227774 0.226506
0.000000 0.538506 0.246128
0.218127 0.534335 0.235750
0.523358 0.529000 0.222856
0.828588 0.523664 0.209962
1.000000 0.520280 0.201438
0.000000 0.830978 0.221026
0.223024 0.826596 0.210437
0.528255 0.821261 0.197543
0.833485 0.815925 0.184649
1.000000 0.812797 0.176380
0.000000 1.000000 0.204042
0.226583 1.000000 0.193449
0.531809 1.000000 0.180551
0.837034 1.000000 0.167652
1.000000 1.000000 0.159554
0.000000 0.003763 0.589635
0.210160 0.000009 0.579672
0.515390 0.000000 0.566779
0.820620 0.000000 0.553885
1.000000 0.000000 0.545116
0.000000 0.244004 0.569055
0.214182 0.240040 0.558883
0.519412 0.234704 0.545989
0.824642 0.229369 0.533095
1.000000 0.225779 0.524365
0.000000 0.536521 0.543998
0.219078 0.532301 0.533570
0.524309 0.526965 0.520676
0.829539 0.521630 0.507782
1.000000 0.518295 0.499307
0.000000 0.828944 0.518846
0.223975 0.824562 0.508257
0.529206 0.819227 0.495363
0.834436 0.813891 0.482469
1.000000 0.810812 0.474250
0.000000 1.000000 0.501860
0.227532 1.000000 0.491267
0.532758 1.000000 0.478369
0.837984 1.000000 0.465471
1.000000 1.000000 0.457422
0.000000 0.001779 0.887504
0.211111 0.000000 0.877492
0.516341 0.000000 0.864599
0.821571 0.000000 0.851705
1.000000 0.000000 0.842936
0.000000 0.242020 0.866925
0.215133 0.238005 0.856703
0.520363 0.232670 0.843809
0.825593 0.227334 0.830915
1.000000 0.223794 0.822235
0.000000 0.534537 0.841867
0.220029 0.530267 0.831390
0.525260 0.524931 0.818496
0.830490 0.519596 0.805602
1.000000 0.516311 0.797177
0.000000 0.826910 0.816666
0.224926 0.822528 0.806077
0.530157 0.817192 0.793183
0.835387 0.811857 0.780289
1.000000 0.808828 0.772119
0.000000 1.000000 0.799679
0.228481 1.000000 0.789085
0.533707 1.000000 0.776187
0.838933 1.000000 0.763289
1.000000 1.000000 0.755290
0.000000 0.000671 1.000000
0.211958 0.000000 1.000000
0.517139 0.000000 1.000000
0.822320 0.000000 1.000000
1.000000 0.000000 1.000000
0.000000 0.240831 1.000000
0.215900 0.236742 1.000000
0.521081 0.231357 1.000000
0.826261 0.225972 1.000000
1.000000 0.222444 1.000000
0.000000 0.533251 1.000000
0.220699 0.528906 1.000000
0.525907 0.523548 1.000000
0.831137 0.518212 1.000000
1.000000 0.514961 0.999762
0.000000 0.825526 1.000000
0.225573 0.821144 1.000000
0.530803 0.815809 0.995734
0.836034 0.810473 0.982840
1.000000 0.807478 0.974704
0.000000 1.000000 1.000000
0.229127 1.000000 0.991635
0.534353 1.000000 0.978737
0.839579 1.000000 0.965839
1.000000 1.000000 0.957874
